X:2095
T:Idas polska - beat
R:Polska
Z:Anton Teljebäck

M:3/4
L:1/8
K:Dm
|: D>D z2 D>E | C>C z2 E>C | B,>B, z2 B,>A, | B,2 C2 D2 | 
D>D z2 D>E | C>C z2 E>C | B,>B, z2 B,2 | C2 D4  :|
(:musicend:)

(:music:)
